X:6026
T:SHULE1- Air - I wish I were on yonder hill
O:england
S:Stevenson & Moore's 'Irish Melodies', #9, 1825
Q:1/4=60
L:1/4
M:C
K:Am
E/|ccB3/2B/|AA/G/E3/2E/|G3/2E/ G/A/ c3/4B/4|\
{A/}G3/2E/DC/D/|E3/2D/ C3/4D/4 E/F/|\
G3/4A/4 G/E/{E/}c3/2B/|A3/4B/4 A/G/ E3/4D/4 E/G/|\
A3/4^G/A2|c2B2|A3/2G/E3/2G/|G3/2E/ G/A/ c/B/|\
{A/}G3/2E/Dz/D/|E3/2D/ C3/4D/4 E/F/|G3/4A/4 G/E/c3/2B/|\
A3/4B/4 A/G/ E3/4D/4 E/G/|A3/2^G/{G/}A3/2|]


